F[BALLADE
CUT[Die verkaufte Muellerin
    Es wollte sich ein Mueller ganz frueh aufstehn,]
CNR[wohl in den Wald spazieren gehn,]
REG[Mitteleuropa, Deutschland (BRD) , Rheinland, Ldkr. Koeln, Sinthern]
SRC[4, S. 323
    1926 aufgezeichnet]
KEY[Q0086C 08 Eb 4/4]
MEL[-5_  11112_22  3_321_
    12  3_3_4_46  5_543_
    5_  6_5_543_  3__2_ //] >>
FCT[Ballade, Menschenhandel, Rettung, Hinrichtung]
CMT[Fuer die letzte Strophe Schluss auf der ersten Stufe notiert.]
